packages/icons/menus/MenuWalletsActive.svg

<svg xmlns="http://www.w3.org/2000/svg" width="30" height="30" fill="none" viewBox="0 0 30 30">
    <path fill="#1C68F3" d="M23.75 16.8784L23.75 16.6517L24.2616 16.6517C24.3242 16.6517 24.375 16.7024 24.375 16.7651C24.375 16.8277 24.3242 16.8784 24.2616 16.8784L23.75 16.8784Z"/>
    <g filter="url(#filter0_b_1005_18946)">
        <path fill="#1C68F3" fill-opacity="0.4" d="M7.5 12.381C7.5 11.066 8.5035 10 9.74138 10H21.5086C22.7465 10 23.75 11.066 23.75 12.381V20.119C23.75 21.434 22.7465 22.5 21.5086 22.5H9.74138C8.5035 22.5 7.5 21.434 7.5 20.119V12.381Z"/>
    </g>
    <path fill="url(#paint0_linear_1005_18946)" d="M18.0441 15.7137C15.6526 17.0944 12.5947 16.2751 11.214 13.8836C9.83324 11.4921 10.6526 8.43418 13.0441 7.05347C15.4355 5.67275 18.4935 6.49213 19.8742 8.88359C21.2549 11.2751 20.4355 14.333 18.0441 15.7137Z"/>
    <path fill="white" fill-rule="evenodd" d="M12.424 11.8637L13.241 13.2788L17.4862 10.8278L17.6688 10.7224C17.9712 11.6926 17.5743 12.7769 16.6573 13.3063C15.8992 13.744 14.9904 13.6843 14.3089 13.2283L13.4861 13.7033L14.1723 14.892C14.3348 15.1733 14.6945 15.2697 14.9759 15.1073L19.0513 12.7544C19.3326 12.5919 19.429 12.2322 19.2666 11.9508L17.5182 8.92255L12.424 11.8637ZM14.7975 12.9462C15.2957 13.1852 15.8995 13.1822 16.4141 12.8851C16.9288 12.5879 17.2333 12.0666 17.2754 11.5156L14.7975 12.9462ZM16.2568 10.1037C16.656 9.87318 17.1567 9.97771 17.4334 10.33L16.9991 10.5807C16.866 10.4605 16.6656 10.4337 16.5019 10.5282C16.3382 10.6227 16.2612 10.8097 16.2988 10.9851L15.8645 11.2358C15.6977 10.8201 15.8576 10.3342 16.2568 10.1037ZM14.0776 11.3618C14.4768 11.1314 14.9775 11.2359 15.2541 11.5882L14.8199 11.8389C14.6868 11.7187 14.4864 11.6919 14.3227 11.7864C14.159 11.8809 14.082 12.0679 14.1196 12.2433L13.6853 12.494C13.5185 12.0782 13.6783 11.5923 14.0776 11.3618ZM12.0347 10.013C11.7533 10.1755 11.657 10.5352 11.8194 10.8166L12.1789 11.4392L17.2731 8.49803L16.9137 7.87539C16.7512 7.59404 16.3915 7.49765 16.1101 7.66008L12.0347 10.013Z" clip-rule="evenodd"/>
    <g filter="url(#filter1_b_1005_18946)">
        <path fill="#1C68F3" fill-opacity="0.05" d="M7.5 14.8684C7.5 13.5604 8.5035 12.5 9.74138 12.5H21.5086C22.7465 12.5 23.75 13.5604 23.75 14.8684V21.3816C23.75 22.6896 22.7465 23.75 21.5086 23.75H9.74138C8.5035 23.75 7.5 22.6896 7.5 21.3816V14.8684Z"/>
    </g>
    <path fill="#1C68F3" d="M24.375 16.7651L24.375 18.875C24.375 19.1511 24.1511 19.375 23.875 19.375L21.875 19.375C21.1846 19.375 20.625 18.8154 20.625 18.125C20.625 17.4346 21.1843 16.875 21.8746 16.875C22.783 16.875 23.8836 16.875 24.0625 16.875C24.375 16.875 24.375 16.7651 24.375 16.7651Z" opacity="0.8"/>
    <circle cx="21.875" cy="18.125" r="0.625" fill="white"/>
    <defs>
        <filter id="filter0_b_1005_18946" width="24.25" height="20.5" x="3.5" y="6" color-interpolation-filters="sRGB" filterUnits="userSpaceOnUse">
            <feFlood flood-opacity="0" result="BackgroundImageFix"/>
            <feGaussianBlur in="BackgroundImage" stdDeviation="2"/>
            <feComposite in2="SourceAlpha" operator="in" result="effect1_backgroundBlur_1005_18946"/>
            <feBlend in="SourceGraphic" in2="effect1_backgroundBlur_1005_18946" mode="normal" result="shape"/>
        </filter>
        <filter id="filter1_b_1005_18946" width="24.25" height="19.25" x="3.5" y="8.5" color-interpolation-filters="sRGB" filterUnits="userSpaceOnUse">
            <feFlood flood-opacity="0" result="BackgroundImageFix"/>
            <feGaussianBlur in="BackgroundImage" stdDeviation="2"/>
            <feComposite in2="SourceAlpha" operator="in" result="effect1_backgroundBlur_1005_18946"/>
            <feBlend in="SourceGraphic" in2="effect1_backgroundBlur_1005_18946" mode="normal" result="shape"/>
        </filter>
        <linearGradient id="paint0_linear_1005_18946" x1="19.6461" x2="10.1815" y1="8.61069" y2="12.5026" gradientUnits="userSpaceOnUse">
            <stop stop-color="#1C68F3"/>
            <stop offset="1" stop-color="#6CB8FF"/>
        </linearGradient>
    </defs>
</svg>

<svg xmlns="http://www.w3.org/2000/svg" width="30" height="30" fill="none">
    <path fill="#1C68F3" d="M23.75 16.878v-.226h.512a.113.113 0 1 1 0 .226h-.512Z"/>
    <g filter="url(#MenuWalletsActive_svg__a)">
        <path fill="#1C68F3" fill-opacity=".4" d="M7.5 12.381C7.5 11.066 8.504 10 9.741 10H21.51c1.238 0 2.241 1.066 2.241 2.381v7.738c0 1.315-1.003 2.381-2.241 2.381H9.74c-1.237 0-2.241-1.066-2.241-2.381v-7.738Z"/>
    </g>
    <path fill="url(#MenuWalletsActive_svg__b)" d="M18.044 15.714a5 5 0 1 1-5-8.66 5 5 0 0 1 5 8.66Z"/>
    <path fill="#fff" fill-rule="evenodd" d="m12.424 11.864.817 1.415 4.245-2.451.183-.106a2.223 2.223 0 0 1-3.36 2.506l-.823.475.686 1.189a.588.588 0 0 0 .804.215l4.075-2.353a.588.588 0 0 0 .216-.803l-1.749-3.028-5.094 2.94Zm2.373 1.082a1.73 1.73 0 0 0 2.478-1.43l-2.477 1.43Zm1.46-2.842a.915.915 0 0 1 1.176.226l-.434.25a.425.425 0 0 0-.7.405l-.434.25a.915.915 0 0 1 .392-1.131Zm-2.18 1.258c.4-.23.9-.126 1.177.226l-.434.25a.425.425 0 0 0-.7.405l-.435.251a.915.915 0 0 1 .393-1.132Zm-2.042-1.349a.588.588 0 0 0-.216.804l.36.622 5.094-2.941-.36-.623a.588.588 0 0 0-.803-.215l-4.075 2.353Z" clip-rule="evenodd"/>
    <g filter="url(#MenuWalletsActive_svg__c)">
        <path fill="#1C68F3" fill-opacity=".05" d="M7.5 14.868c0-1.308 1.004-2.368 2.241-2.368H21.51c1.238 0 2.241 1.06 2.241 2.368v6.514c0 1.308-1.003 2.368-2.241 2.368H9.74c-1.237 0-2.241-1.06-2.241-2.368v-6.514Z"/>
    </g>
    <path fill="#1C68F3" d="M24.375 16.765v2.11a.5.5 0 0 1-.5.5h-2a1.25 1.25 0 0 1 0-2.5h2.188c.312 0 .312-.11.312-.11Z" opacity=".8"/>
    <circle cx="21.875" cy="18.125" r=".625" fill="#fff"/>
    <defs>
        <filter id="MenuWalletsActive_svg__a" width="24.25" height="20.5" x="3.5" y="6" color-interpolation-filters="sRGB" filterUnits="userSpaceOnUse">
            <feFlood flood-opacity="0" result="BackgroundImageFix"/>
            <feGaussianBlur in="BackgroundImage" stdDeviation="2"/>
            <feComposite in2="SourceAlpha" operator="in" result="effect1_backgroundBlur_1005_18946"/>
            <feBlend in="SourceGraphic" in2="effect1_backgroundBlur_1005_18946" result="shape"/>
        </filter>
        <filter id="MenuWalletsActive_svg__c" width="24.25" height="19.25" x="3.5" y="8.5" color-interpolation-filters="sRGB" filterUnits="userSpaceOnUse">
            <feFlood flood-opacity="0" result="BackgroundImageFix"/>
            <feGaussianBlur in="BackgroundImage" stdDeviation="2"/>
            <feComposite in2="SourceAlpha" operator="in" result="effect1_backgroundBlur_1005_18946"/>
            <feBlend in="SourceGraphic" in2="effect1_backgroundBlur_1005_18946" result="shape"/>
        </filter>
        <linearGradient id="MenuWalletsActive_svg__b" x1="19.646" x2="10.181" y1="8.611" y2="12.503" gradientUnits="userSpaceOnUse">
            <stop stop-color="#1C68F3"/>
            <stop offset="1" stop-color="#6CB8FF"/>
        </linearGradient>
    </defs>
</svg>
